media/logo.svg

<svg width="838" height="341" viewBox="0 0 838 341" fill="none" xmlns="http://www.w3.org/2000/svg">
<path d="M685.07 41.5251H723.272L753.034 118.517L786.571 41.5251H824.995L750.591 208.527H713.055L732.6 165.205L685.07 41.5251Z" fill="#2B2B2B"/>
<path d="M666.069 176.429H630.532V73.6244H616.096V41.526H628.533C629.126 28.507 634.012 18.4061 643.192 11.2232C652.817 3.74108 666.809 0 685.17 0V33.2208H676.508C671.77 33.2208 668.734 33.6697 667.402 34.5676C666.069 35.6151 665.329 37.9345 665.18 41.526H685.17V73.6244H666.069V176.429Z" fill="#2B2B2B"/>
<path d="M566.439 176.205V43.3218H601.976V176.205H566.439Z" fill="#2B2B2B"/>
<path d="M508.572 176.205V1.57104H544.109V176.205H508.572Z" fill="#2B2B2B"/>
<path d="M450.699 176.205V1.57104H486.236V176.205H450.699Z" fill="#2B2B2B"/>
<path d="M392.83 176.205V43.3218H428.367V176.205H392.83Z" fill="#2B2B2B"/>
<path d="M300.31 178.898C280.321 178.898 263.515 171.94 249.892 158.023C236.27 144.406 229.459 127.795 229.459 108.192C229.459 99.0637 231.162 90.1599 234.567 81.4806C237.973 72.951 242.785 65.4688 249.004 59.0342C255.519 52.0009 262.923 46.7634 271.214 43.3216C279.654 39.8798 288.909 38.1589 298.977 38.1589C305.936 38.1589 312.748 39.1316 319.411 41.077C325.63 42.8727 330.738 45.267 334.736 48.2598V41.3014H370.272V176.205H334.514V169.022C330.516 171.715 325.556 173.96 319.633 175.756C313.118 177.851 306.677 178.898 300.31 178.898ZM335.402 109.539C335.402 98.6148 331.997 89.6362 325.185 82.603C318.67 76.0187 310.601 72.7265 300.976 72.7265C290.907 72.7265 282.616 75.9438 276.101 82.3785C269.438 88.9628 266.106 97.4924 266.106 107.967C266.106 119.041 269.438 128.02 276.101 134.903C282.616 141.787 290.982 145.229 301.198 145.229C310.379 145.229 318.374 141.712 325.185 134.679C331.997 127.795 335.402 119.415 335.402 109.539Z" fill="#2B2B2B"/>
<path d="M194.913 176.205H159.377V41.3017H193.581V45.342C195.358 43.696 198.689 42.3492 203.575 41.3017C209.202 39.9549 215.569 39.2815 222.676 39.2815V74.7469C211.127 75.3455 203.501 77.5901 199.8 81.4809C196.542 84.9227 194.913 91.6566 194.913 101.683V176.205Z" fill="#2B2B2B"/>
<path d="M70.1846 178.898C63.5215 178.898 56.9324 177.851 50.4174 175.756C44.4946 173.96 39.6824 171.715 35.9807 169.022V176.205H0V1.57104H35.5365V48.2597C39.3863 45.2668 44.4206 42.8726 50.6395 41.0768C57.3026 39.1315 64.2618 38.1588 71.5172 38.1588C81.2897 38.1588 90.3959 39.8797 98.8359 43.3215C107.128 46.7633 114.605 52.0008 121.268 59.034C127.487 65.4687 132.299 72.9508 135.705 81.4805C139.259 90.1598 141.035 99.0635 141.035 108.192C141.035 127.645 134.15 144.256 120.38 158.023C106.609 171.94 89.8777 178.898 70.1846 178.898ZM35.0923 109.539C35.0923 119.415 38.4238 127.795 45.0869 134.679C51.75 141.712 59.8198 145.228 69.2962 145.228C79.3648 145.228 87.6567 141.787 94.1717 134.903C100.983 128.019 104.388 119.041 104.388 107.967C104.388 97.4923 100.983 88.9626 94.1717 82.3783C87.5086 75.9437 79.2168 72.7264 69.2962 72.7264C59.5236 72.7264 51.3798 76.0185 44.8648 82.6028C38.3498 89.636 35.0923 98.6146 35.0923 109.539Z" fill="#2B2B2B"/>
<circle cx="411.51" cy="19.5049" r="19.3464" fill="#2B2B2B"/>
<circle cx="584.708" cy="19.5049" r="19.3464" fill="#2B2B2B"/>
<circle cx="819" cy="160" r="19" fill="#2B2B2B"/>
<circle cx="106.179" cy="254.703" r="11.1968" fill="#2B2B2B"/>
<circle cx="106.179" cy="292.224" r="11.1968" fill="#2B2B2B"/>
<circle cx="106.179" cy="329.744" r="11.1968" fill="#2B2B2B"/>
<circle cx="146.279" cy="292.224" r="11.1968" fill="#2B2B2B"/>
<circle cx="201.226" cy="254.703" r="11.1968" fill="#2B2B2B"/>
<circle cx="296.267" cy="292.224" r="11.1968" fill="#2B2B2B"/>
<circle cx="336.363" cy="254.703" r="11.1968" fill="#2B2B2B"/>
<circle cx="391.308" cy="254.703" r="11.1968" fill="#2B2B2B"/>
<circle cx="391.308" cy="292.224" r="11.1968" fill="#2B2B2B"/>
<circle cx="391.308" cy="329.744" r="11.1968" fill="#2B2B2B"/>
<circle cx="486.349" cy="254.703" r="11.1968" fill="#2B2B2B"/>
<circle cx="486.349" cy="292.224" r="11.1968" fill="#2B2B2B"/>
<circle cx="486.349" cy="329.744" r="11.1968" fill="#2B2B2B"/>
<circle cx="581.392" cy="292.224" r="11.1968" fill="#2B2B2B"/>
<circle cx="621.482" cy="254.703" r="11.1968" fill="#2B2B2B"/>
<circle cx="676.427" cy="254.703" r="11.1968" fill="#2B2B2B"/>
<circle cx="676.427" cy="292.224" r="11.1968" fill="#2B2B2B"/>
<circle cx="716.529" cy="254.703" r="11.1968" fill="#2B2B2B"/>
<circle cx="771.474" cy="254.703" r="11.1968" fill="#2B2B2B"/>
<circle cx="771.474" cy="329.744" r="11.1968" fill="#2B2B2B"/>
<circle cx="811.509" cy="254.703" r="11.1968" fill="#2B2B2B"/>
<circle cx="811.509" cy="292.224" r="11.1968" fill="#2B2B2B"/>
<circle cx="811.509" cy="329.803" r="11.1968" fill="#2B2B2B"/>
<circle cx="11.1968" cy="253.893" r="11.1968" fill="#2B2B2B"/>
<circle cx="11.1968" cy="291.473" r="11.1968" fill="#2B2B2B"/>
</svg>

<svg width="918" height="421" xmlns="http://www.w3.org/2000/svg"><rect width="100%" height="100%" fill="#efeeeb"/><g transform="translate(40 40)" fill="#2B2B2B"><path d="M685.07 41.525h38.202l29.762 76.992 33.537-76.992h38.424l-74.404 167.002h-37.536l19.545-43.322-47.53-123.68z"/><path d="M666.069 176.429h-35.537V73.624h-14.436V41.526h12.437c.593-13.019 5.479-23.12 14.659-30.303C652.817 3.741 666.809 0 685.17 0v33.22h-8.662c-4.738 0-7.774.45-9.106 1.348-1.333 1.047-2.073 3.367-2.222 6.958h19.99v32.098h-19.101V176.43zM566.439 176.205V43.322h35.537v132.883h-35.537zM508.572 176.205V1.571h35.537v174.634h-35.537zM450.699 176.205V1.571h35.537v174.634h-35.537zM392.83 176.205V43.322h35.537v132.883H392.83zM300.31 178.898c-19.989 0-36.795-6.958-50.418-20.875-13.622-13.617-20.433-30.228-20.433-49.831 0-9.128 1.703-18.032 5.108-26.711 3.406-8.53 8.218-16.012 14.437-22.447 6.515-7.033 13.919-12.27 22.21-15.712 8.44-3.442 17.695-5.163 27.763-5.163 6.959 0 13.771.973 20.434 2.918 6.219 1.796 11.327 4.19 15.325 7.183V41.3h35.536v134.904h-35.758v-7.183c-3.998 2.693-8.958 4.938-14.881 6.734-6.515 2.095-12.956 3.142-19.323 3.142zm35.092-69.359c0-10.924-3.405-19.903-10.217-26.936-6.515-6.584-14.584-9.876-24.209-9.876-10.069 0-18.36 3.217-24.875 9.651-6.663 6.585-9.995 15.114-9.995 25.589 0 11.074 3.332 20.053 9.995 26.936 6.515 6.884 14.881 10.326 25.097 10.326 9.181 0 17.176-3.517 23.987-10.55 6.812-6.884 10.217-15.264 10.217-25.14zM194.913 176.205h-35.536V41.302h34.204v4.04c1.777-1.646 5.108-2.993 9.994-4.04 5.627-1.347 11.994-2.02 19.101-2.02v35.465c-11.549.599-19.175 2.843-22.876 6.734-3.258 3.442-4.887 10.176-4.887 20.202v74.522zM70.185 178.898c-6.663 0-13.253-1.047-19.768-3.142-5.922-1.796-10.735-4.041-14.436-6.734v7.183H0V1.571h35.536V48.26c3.85-2.993 8.885-5.387 15.103-7.183 6.664-1.945 13.623-2.918 20.878-2.918 9.773 0 18.879 1.72 27.319 5.163 8.292 3.441 15.769 8.679 22.432 15.712 6.219 6.435 11.031 13.917 14.437 22.447 3.554 8.679 5.33 17.583 5.33 26.711 0 19.453-6.885 36.064-20.655 49.831-13.771 13.917-30.502 20.875-50.195 20.875zm-35.093-69.359c0 9.876 3.332 18.256 9.995 25.14 6.663 7.033 14.733 10.549 24.21 10.549 10.068 0 18.36-3.441 24.875-10.325 6.811-6.884 10.216-15.862 10.216-26.936 0-10.475-3.405-19.004-10.216-25.589-6.663-6.434-14.955-9.652-24.876-9.652-9.772 0-17.916 3.293-24.431 9.877-6.515 7.033-9.773 16.012-9.773 26.936z"/><circle cx="411.51" cy="19.505" r="19.346"/><circle cx="584.708" cy="19.505" r="19.346"/><circle cx="819" cy="160" r="19"/><circle cx="106.179" cy="254.703" r="11.197"/><circle cx="106.179" cy="292.224" r="11.197"/><circle cx="106.179" cy="329.744" r="11.197"/><circle cx="146.279" cy="292.224" r="11.197"/><circle cx="201.226" cy="254.703" r="11.197"/><circle cx="296.267" cy="292.224" r="11.197"/><circle cx="336.363" cy="254.703" r="11.197"/><circle cx="391.308" cy="254.703" r="11.197"/><circle cx="391.308" cy="292.224" r="11.197"/><circle cx="391.308" cy="329.744" r="11.197"/><circle cx="486.349" cy="254.703" r="11.197"/><circle cx="486.349" cy="292.224" r="11.197"/><circle cx="486.349" cy="329.744" r="11.197"/><circle cx="581.392" cy="292.224" r="11.197"/><circle cx="621.482" cy="254.703" r="11.197"/><circle cx="676.427" cy="254.703" r="11.197"/><circle cx="676.427" cy="292.224" r="11.197"/><circle cx="716.529" cy="254.703" r="11.197"/><circle cx="771.474" cy="254.703" r="11.197"/><circle cx="771.474" cy="329.744" r="11.197"/><circle cx="811.509" cy="254.703" r="11.197"/><circle cx="811.509" cy="292.224" r="11.197"/><circle cx="811.509" cy="329.803" r="11.197"/><circle cx="11.197" cy="253.893" r="11.197"/><circle cx="11.197" cy="291.473" r="11.197"/></g></svg>
